svg/fluentui-system-icons/ic_fluent_folder_open_16_regular.svg

<svg width="16" height="16" viewBox="0 0 16 16" fill="none" xmlns="http://www.w3.org/2000/svg">
<path d="M13.003 6V5.99612C13.003 4.89155 12.1076 3.99612 11.003 3.99612H6.17452L5.06508 3.10942C4.97645 3.03859 4.86637 3 4.75291 3H3C1.89543 3 1 3.89543 1 5V11C1 12.1046 1.89543 13 3 13H12.2503C12.9167 13 13.5031 12.5604 13.6901 11.9208L14.8592 7.9208C15.1398 6.96062 14.4198 6 13.4194 6H13.003ZM3 4H4.57766L5.68709 4.8867C5.77572 4.95753 5.8858 4.99612 5.99926 4.99612H11.003C11.5553 4.99612 12.003 5.44383 12.003 5.99612V6H4.24988C3.58322 6 2.99655 6.44 2.80988 7.08L2 9.85675V5C2 4.44772 2.44772 4 3 4ZM3.76988 7.36C3.83211 7.14667 4.02766 7 4.24988 7H13.4194C13.7529 7 13.9929 7.32021 13.8993 7.64027L12.7302 11.6403C12.6679 11.8535 12.4724 12 12.2503 12H3.08322C2.74988 12 2.50988 11.68 2.60322 11.36L3.76988 7.36Z" fill="#212121"/>
</svg>

<svg xmlns="http://www.w3.org/2000/svg" width="16" height="16"><path d="M13.003 6v-.004a2 2 0 0 0-2-2H6.175l-1.11-.887A.5.5 0 0 0 4.753 3H3a2 2 0 0 0-2 2v6a2 2 0 0 0 2 2h9.25a1.5 1.5 0 0 0 1.44-1.08l1.17-4A1.5 1.5 0 0 0 13.42 6h-.417ZM3 4h1.578l1.11.887a.5.5 0 0 0 .311.11h5.004a1 1 0 0 1 1 1V6H4.25a1.5 1.5 0 0 0-1.44 1.08L2 9.857V5a1 1 0 0 1 1-1Zm.77 3.36A.5.5 0 0 1 4.25 7h9.17a.5.5 0 0 1 .48.64l-1.17 4a.5.5 0 0 1-.48.36H3.083a.5.5 0 0 1-.48-.64l1.167-4Z"/></svg>
